X:1
T:Title
%%score { 1 | 2 }
L:1/8
M:4/4
K:F
V:1 treble nm="Grand Piano"
V:2 bass 
V:1
 z4 z2[Q:1/4=92] [CFA][CGB] | [CAc]>[CAc] [CAc][D_A=B] [=Ad][Ac]AF | E6 ED | C2 [EB]2 [FA]2 [EG]2 | %4
 [CFA]6 [CFA][CGB] | [CAc]>[CAc] [CAc][D_A=B] [F=Ad][FAc][CFA][A,F] | [Fd]6 [DF][DFG] | %7
 [CFA] [Fc]3 [EA]2 G2 | F6 z2 | c2 A2 d2 cA | [Ac]>[GB] [GB][^FA] [GB]2 z2 | %11
 [GB]2 [EG]2 [Ge]2 [Fd][Ec] | d>c c=B c2 z2 | c2 A2 d2 cA | [DF]>[DB] [DB][Ec] [Fd]2 [DF][DFG] | %15
 [CFA] [Fc]3 [EA]2 [EG]2 |[M:3/4] F6 |] %17
V:2
 z4 z2 F,F, | F,>F, F,F, [F,F][F,F][F,CF][F,A,C] | [G,B,C]6 [C,G,C][C,F,C] | %3
 [C,E,]2 [C,G,]2 [C,C]2 [C,C]2 | F,6 F,F, | F,>F, F,F, F,F,F,F, | [B,,B,]6 B,,B,, | %7
 C, [C,A,]3 [C,C]2 [C,B,C]2 | [F,A,C]6 z2 | [F,A,F]2 [F,CF]2 [F,B,F]2 [F,A,F][F,CF] | %10
 [C,C]>[C,C] [C,C][C,C] [C,C]2 z2 | [C,C]2 [C,C]2 [C,C]2 [C,G,][C,G,] | %12
 [F,B,F]>[F,A,F] [F,A,F][F,_A,F] [F,=A,F]2 z2 | [F,A,F]2 [F,CF]2 [F,B,F]2 [F,A,F][F,C] | %14
 [B,,B,]>[B,,F,] [B,,F,][B,,F,] [B,,B,]2 B,,B,, | C, [C,A,]3 [C,C]2 [C,B,]2 |[M:3/4] [F,A,]6 |] %17

